bell/images/logo.svg

<svg width="95" height="35" viewBox="0 0 95 35" fill="none" xmlns="http://www.w3.org/2000/svg">
<g clip-path="url(#clip0)">
<path d="M7.96575 -3.8147e-06V14.592C9.36535 13.574 10.675 12.804 11.9036 12.295C13.1313 11.786 14.2769 11.532 15.3446 11.532C17.667 11.532 19.6004 12.543 21.14 14.561C22.6795 16.578 23.4493 19.143 23.4493 22.255C23.4493 25.838 22.4316 28.765 20.3952 31.043C18.3598 33.321 15.7445 34.46 12.5385 34.46C11.7247 34.46 10.9229 34.326 10.1341 34.06C9.34533 33.792 8.62655 33.398 7.96474 32.882L2.16939 34.556V8.554C2.16939 7.218 2.00343 6.047 1.67252 5.041C1.34162 4.042 0.78177 2.985 -7.62939e-06 1.885L7.96575 -3.8147e-06ZM7.96575 31.321C8.53158 31.512 9.07841 31.652 9.60026 31.76C10.1281 31.862 10.612 31.912 11.0509 31.912C12.9973 31.912 14.5689 31.123 15.7645 29.545C16.9602 27.967 17.552 25.855 17.552 23.22C17.552 20.598 16.9542 18.536 15.7645 17.034C14.5689 15.532 12.9403 14.781 10.8659 14.781C10.522 14.781 10.1341 14.807 9.70125 14.851C9.26837 14.895 8.68954 14.984 7.97075 15.112V31.32H7.96575V31.321Z" fill="#F46752"/>
<path d="M45.595 22.062H31.4081V22.438C31.4081 25.39 32.1839 27.636 33.7424 29.164C35.295 30.698 37.5593 31.462 40.5305 31.462C41.1923 31.462 41.9491 31.417 42.8018 31.334C43.6606 31.245 44.6403 31.118 45.76 30.946C44.3794 32.218 42.8968 33.179 41.3192 33.835C39.7417 34.484 38.0812 34.815 36.3377 34.815C33.0366 34.815 30.4024 33.784 28.4299 31.728C26.4575 29.672 25.4718 26.911 25.4718 23.456C25.4718 19.95 26.5025 17.086 28.5699 14.865C30.6373 12.644 33.3025 11.531 36.5666 11.531C39.3588 11.531 41.5662 12.448 43.1767 14.287C44.7863 16.126 45.594 18.639 45.594 21.828V22.062H45.595ZM39.4178 20.032C39.4178 17.945 39.0999 16.323 38.4631 15.177C37.8262 14.031 36.9295 13.459 35.7658 13.459C34.3852 13.459 33.3235 14.115 32.5847 15.425C31.8469 16.736 31.4591 18.658 31.4331 21.19L39.4178 20.032Z" fill="#F46752"/>
<path d="M55.2593 -3.8147e-06V27.224C55.2593 28.828 55.4053 30.125 55.6972 31.124C55.9891 32.123 56.4409 33.142 57.0518 34.179H47.6934C48.3043 33.11 48.7562 32.073 49.0491 31.055C49.341 30.043 49.4869 28.764 49.4869 27.224V8.553C49.4869 7.217 49.315 6.046 48.9781 5.04C48.6342 4.041 48.0753 2.984 47.2915 1.884L55.2593 -3.8147e-06Z" fill="#F46752"/>
<path d="M67.5568 -3.8147e-06V27.224C67.5568 28.828 67.7028 30.125 67.9947 31.124C68.2876 32.123 68.7395 33.142 69.3493 34.179H59.998C60.6088 33.11 61.0606 32.073 61.3526 31.055C61.6455 30.043 61.7915 28.764 61.7915 27.224V8.553C61.7915 7.217 61.6185 6.046 61.2816 5.04C60.9377 4.041 60.3788 2.984 59.5901 1.884L67.5568 -3.8147e-06Z" fill="#F46752"/>
<path d="M71.9835 23.215C71.9835 19.677 73.0582 16.845 75.2096 14.719C77.359 12.587 80.2292 11.525 83.8112 11.525C87.2522 11.525 89.9754 12.575 91.9858 14.669C93.9973 16.769 95.002 19.601 95.002 23.165C95.002 26.76 93.9333 29.636 91.7959 31.781C89.6585 33.926 86.7953 35.001 83.1944 35.001C79.7533 35.001 77.0231 33.938 75.0067 31.819C72.9953 29.699 71.9835 26.829 71.9835 23.215ZM83.4343 13.319C81.8637 13.319 80.6291 14.185 79.7253 15.909C78.8226 17.64 78.3717 20.027 78.3717 23.075C78.3717 26.199 78.8356 28.662 79.7653 30.463C80.694 32.265 81.9477 33.162 83.5372 33.162C85.1528 33.162 86.4194 32.296 87.3282 30.558C88.2379 28.821 88.6958 26.377 88.6958 23.214C88.6958 20.09 88.2319 17.659 87.3022 15.922C86.3744 14.185 85.0898 13.319 83.4343 13.319Z" fill="#F46752"/>
</g>
<defs>
<clipPath id="clip0">
<rect width="95" height="35" fill="white"/>
</clipPath>
</defs>
</svg>

<svg width="95" height="35" fill="none" xmlns="http://www.w3.org/2000/svg"><g clip-path="url(#clip0)" fill="#F46752"><path d="M7.966 0v14.592c1.4-1.018 2.709-1.788 3.938-2.297 1.227-.509 2.373-.763 3.44-.763 2.323 0 4.256 1.011 5.796 3.029 1.54 2.017 2.31 4.582 2.31 7.694 0 3.583-1.018 6.51-3.055 8.788-2.035 2.278-4.65 3.417-7.856 3.417a7.48 7.48 0 01-2.405-.4 7.345 7.345 0 01-2.17-1.178L2.17 34.556V8.554c0-1.336-.166-2.507-.496-3.513C1.342 4.042.782 2.985 0 1.885L7.966 0zm0 31.321a13.89 13.89 0 001.634.439 7.69 7.69 0 001.45.152c1.947 0 3.519-.789 4.714-2.367 1.196-1.578 1.788-3.69 1.788-6.325 0-2.622-.598-4.684-1.787-6.186-1.196-1.502-2.825-2.253-4.9-2.253-.343 0-.73.026-1.164.07a24.86 24.86 0 00-1.73.261V31.32h-.005v.001zm37.629-9.259H31.408v.376c0 2.952.776 5.198 2.334 6.726 1.553 1.534 3.817 2.298 6.789 2.298.661 0 1.418-.045 2.27-.128a61.076 61.076 0 002.959-.388c-1.38 1.272-2.863 2.233-4.44 2.889-1.578.649-3.239.98-4.982.98-3.301 0-5.936-1.031-7.908-3.087-1.973-2.056-2.958-4.817-2.958-8.272 0-3.506 1.03-6.37 3.098-8.591 2.067-2.221 4.733-3.334 7.997-3.334 2.792 0 5 .917 6.61 2.756 1.61 1.839 2.417 4.352 2.417 7.541v.234h.001zm-6.177-2.03c0-2.087-.318-3.709-.955-4.855-.637-1.146-1.534-1.718-2.697-1.718-1.38 0-2.442.656-3.181 1.966-.738 1.311-1.126 3.233-1.152 5.765l7.985-1.158zM55.26 0v27.224c0 1.604.145 2.901.437 3.9.292.999.744 2.018 1.355 3.055h-9.359c.611-1.069 1.063-2.106 1.356-3.124.292-1.012.438-2.291.438-3.831V8.553c0-1.336-.172-2.507-.509-3.513-.344-.999-.903-2.056-1.687-3.156L55.26 0zm12.297 0v27.224c0 1.604.146 2.901.438 3.9.293.999.745 2.018 1.354 3.055h-9.351c.61-1.069 1.063-2.106 1.355-3.124.292-1.012.438-2.291.438-3.831V8.553c0-1.336-.172-2.507-.51-3.513-.343-.999-.902-2.056-1.69-3.156L67.556 0zm4.427 23.215c0-3.538 1.074-6.37 3.226-8.496 2.149-2.132 5.02-3.194 8.601-3.194 3.441 0 6.164 1.05 8.175 3.144 2.011 2.1 3.016 4.932 3.016 8.496 0 3.595-1.069 6.471-3.206 8.616-2.138 2.145-5 3.22-8.602 3.22-3.44 0-6.17-1.063-8.187-3.182-2.012-2.12-3.023-4.99-3.023-8.604zm11.45-9.896c-1.57 0-2.805.866-3.709 2.59-.902 1.731-1.353 4.118-1.353 7.166 0 3.124.464 5.587 1.393 7.388.929 1.802 2.183 2.699 3.772 2.699 1.616 0 2.882-.866 3.791-2.604.91-1.737 1.368-4.181 1.368-7.344 0-3.124-.464-5.555-1.394-7.292-.928-1.737-2.212-2.603-3.868-2.603z"/></g><defs><clipPath id="clip0"><path fill="#fff" d="M0 0h95v35H0z"/></clipPath></defs></svg>
